X:1
T:Sonate No. 9
T:2 nd Movement Opus 14 No. 1
T:Ludwig van Beethoven (1770 - 1827)
%%score ( 1 2 ) { ( 3 4 ) | ( 5 6 7 8 ) }
L:1/8
Q:1/4=200
M:3/4
K:G
V:1 treble nm="Violin" snm="Vln."
V:2 treble 
V:3 treble nm="Piano"
V:4 treble 
V:5 bass 
V:6 bass 
V:7 bass 
V:8 bass 
V:1
"^Allegro""^transcribed for violin and piano as 3rd movement\n from Violin Concerto in E minor"!ff! (E3 _E =E2) | %1
 (E3 _E =E2) | G6- | (G2 FE_EF) | [B,E]2 [B,F]2 [B,G]2 | B2 A2 G2 | F4 AG | .F2 z2 B2 | %8
 (e3 ^d e2) | (e3 ^d e2) | g6- | (g2 fe^df) | e2 f2 g2 | b2 a2 g2 | g4 f2 | e2 z2 z2 | (E3 ^D E2) | %17
 G6 | (=F3 E F2) | G6 |!p! (E3 ^D E2) | G4 G2 | G4 ^F2 | G2 z2 G2 | (e3 ^d e2) | g6 | %26
 (^e3 =e ^e2) | g6 |!p! (e3 ^d e2) |!<(! (.[Ee]4 .[Ee]2)!<)! |!>(! [Ee]4!>)! [^D^d]2 | %31
 !fermata![_G_g]4!p! B2 | (e3 ^d e2) | (e3 ^d e2) | g6- | (g2 fe^df) | e2 f2 g2 | b2 a2 g2 | %38
 f4 ag | .f2 z2!p! B,2 | (E3 ^D E2) | (E3 ^D E2) | c6 | (c2 BA^GB) | !wedge!.A2 (BA^GB) | %45
 !wedge!.A2 (BA^GB) | .[CEA]2 A^GAB | cde_e=ec |!p! .B2 B^AB=G | .[^DF]2 (B^ABF) | E6 | _E6 | %52
 E2 z2 ^G2 | A2 (ABcA) | _A2 z2 e2 |!f! _e6 | .e2 _e4 | .e2 _e4 |!p! e2 z2 z2 | _a2 z2 z2 | %60
!pp! [e_ae']2 z2 z2 | e'4- (e'>E)!dacoda! |:[K:C]"^Maggiore"!p! E6 | D2 F2 B,2 | C2 E2 G2 | z6 | %66
 z6 | z6 | z6 | z6 | z6 | z6 | z6 | z6 | z6 | z6 | z6 | z6 :| z6 | z6 | z6 | z6 | z6 | z6 | z6 | %85
 z6 | z6 | z6 | z6 | z6 | z6 | z6 | z6 | z6 | z6 | z6 | z6 | z6 | z6 |[Q:1/4=90]"^90" z6!D.C.! | %100
[K:C]O[Q:1/4=180]"^CODA" z6 | z6 | z6 | z6 | z6 | z6 | z6 | z6 ||[K:E]"_ dim." [ee']6- | [ee']6 | %110
 [Bb]6- | [Bb]6 |!pp! [EGBe]2 z2 z2 | [Eee']2 z2 z2 | [Eee']2 z2 z2 | z6 |] %116
V:2
 [G,B,]6 | [G,C]6 | [^A,^C]6 | [=A,=C]6 | x6 | F4 E2 | _E4 =E2 | ._E2 x4 | [GB]6 | [Gc]6 | %10
 [_B^c]6 | [=A=c]6 | B2 B2 B2 | f4 e2 | e4 ^d2 | e2 x4 | [G,C]6 | [B,=D]6 | [A,D]6 | D6 | [G,C]6 | %21
 [B,=D]6 | [A,D]6 | [B,D]2 x4 | [Gc]6 | [B=d]6 | [Ad]6 | d6 | [Gc]6 | x6 | x6 | x6 | [GB]6 | %33
 [Gc]6 | [^A^c]6 | [=A=c]6 | B2 B2 B2 | f4 e2 | ^d4 e2 | .^d2 x4 | x6 | x6 | [D=F-]6 | [DF]6 | %44
 .[CE]2 [D=F]4 | .[CE]2 [D=F]4 | x6 | x6 | x6 | x6 | z2 z2 ^G,2 | A,2 (A,B,CA,) | ^G,2 z2 E2 | %53
 _E6 | E2 z2 _A2 | A2 (ABcA) | ._A2 (=ABcA) | ._A2 (=ABcA) | _A2 x4 | e2 x4 | x6 | x6 |:[K:C] G,6 | %63
 x6 | x6 | x6 | x6 | x6 | x6 | x6 | x6 | x6 | x6 | x6 | x6 | x6 | x6 | x6 :| x6 | x6 | x6 | x6 | %82
 x6 | x6 | x6 | x6 | x6 | x6 | x6 | x6 | x6 | x6 | x6 | x6 | x6 | x6 | x6 | x6 | x6 | x6 | %100
[K:C] x6 | x6 | x6 | x6 | x6 | x6 | x6 | x6 ||[K:E] x6 | x6 | x6 | x6 | x6 | x6 | x6 | x6 |] %116
V:3
!p! (E3 ^D E2) | (E3 ^D E2) | G6- | (G2 FE^DF) | ([B,E]2 [B,F]2 [B,G]2 | B2 A2 G2) | (F4 AG | %7
 .F2) z2 B2 | (e3 ^d e2) | (e3 ^d e2) | g6- | (g2 fe^df) | (e2 f2 g2 | b2 a2 g2) | g4 f2 | %15
 e2 z2 z2 | (E3 ^D E2) | G6 | (=F3 E F2) | G6 |!p! (E3 ^D E2) | G4 G2 | (G4 ^F2 | G2) z2 G2 | %24
 (e3 ^d e2) | g6 | (=f3 e f2) | g6 |!p! (e3 ^d e2) |!<(! (.[Ee]4 .[Ee]2)!<)! | %30
!>(! ([Ee]4!>)! [^D^d]2 | !fermata![^F^f]4)!p! B2 | (e3 ^d e2) | (e3 ^d e2) | g6- | (g2 fe^df) | %36
 (e2 f2 g2 | b2 a2 g2) | (f4 ag | .f2) z2!p! B,2 | (E3 ^D E2) | (E3 ^D E2) | c6- | (c2 BA^GB) | %44
 !wedge!.A2 (BA^GB) | !wedge!.A2 (BA^GB) | .[CEA]2 (A^GAB | cde^dec) |!p! .B2 (B^AB=G | %49
 .[^DF]2) (B^ABF) | (E6 | ^D6 | E2) z2 ^G2 | A2 (ABcA) | ^G2 z2 e2 |!f! ^d6 | .e2 ^d4 | .e2 ^d4 | %58
!p! e2 z2 z2 | ^g2 z2 z2 |!pp!!<(! [e^ge']2 z2 z2 | e'4- (e'>E)!<)! |:[K:C]"^Maggiore"!p! (E6 | %63
 D2 F2 B,2 | C2 E2 G2- | G2 ^F2 =F2) | ([CE]6 | D2 F2 B,2) | (.C2 .E2 .G2) | (.c2 .d2 .^d2) | %70
 (e2 g4- | g2 ^f2 g2) | (A2 c4- | c2) B4- | (B2 ^G2 A2- | A2 E2 ^F2 |!p! G2) z2 z2 | z6 :| %78
!p! z2 (A,2 G2 | F2 E2 D2) | z2 (G,2 F2 | E2 D2 C2) |"_ cresc." z2 (A2 g2 | f2 e2 d2) | %84
 z2 (G2 f2 | e2 d2 c2) | (B2 A2 G2 | F2 E2 D2) |!p! (E6 | D2 F2 B,2) | (.C2 .E2 .G2) | %91
 (.c2 .d2 .^d2) | (e6 | =d2 f2 B2) | (.c2 .e2 .g2) | (.c'2 .d'2 .^d'2) | [ee']6- | [ee']6 | %98
!pp! [Bb]6- | !fermata![Bb]6 |[K:C]!p! (E6 | D2 F2 B,2) | (.[E,C]2 .E2 .G2) | (.c2 .d2 .^d2) | %104
 (e6 | =d2 f2 B2) | (.c2 .e2 .g2) | (.c'2 .d'2 .^d'2) ||[K:E]"_ dim." [ee']6- | [ee']6 | [Bb]6- | %111
 [Bb]6 |!pp! [EGBe]2 z2 z2 | [Eee']2 z2 z2 | [Eee']2 z2 z2 | !fermata!z6 |] %116
V:4
 [G,B,]6 | [G,C]6 | [^A,^C]6 | [=A,=C]6 | x6 | F4 E2 | ^D4 E2 | .^D2 x4 | [GB]6 | [Gc]6 | [^A^c]6 | %11
 [=A=c]6 | B2 B2 B2 | f4 e2 | e4 ^d2 | e2 x4 | [G,C]6 | [G,B,]6 | [A,D]6 | D6 | [G,C]6 | [B,=D]6 | %22
 [A,D]6 | [B,D]2 x4 | [Gc]6 | [B=d]6 | [Ad]6 | d6 | [Gc]6 | x6 | x6 | x6 | [GB]6 | [Gc]6 | %34
 [^A^c]6 | [=A=c]6 | B2 B2 B2 | f4 e2 | ^d4 e2 | .^d2 x4 | x6 | x6 | [D=F]6- | [DF]6 | %44
 .[CE]2 [D=F]4 | .[CE]2 [D=F]4 | x6 | x6 | x6 | x6 | z2 z2 ^G,2 | A,2 (A,B,CA,) | ^G,2 z2 E2 | %53
 ^D6 | E2 z2 ^G2 | A2 (ABcA) | .^G2 (ABcA) | .^G2 (ABcA) | ^G2 x4 | e2 x4 | x6 | x6 |: %62
[K:C][I:staff +1] G,6 | F,6 | E,2 x4 |[I:staff -1] (G,2 A,2 B,2) | x6 | x6 |[I:staff +1] E,2 x4 | %69
 x6 |[I:staff -1] e4 =d2 | c4 B2 | A4 G2 | ^F4 G2 | E6 | C6 | (B,2 A,2 G,2 | %77
[I:staff +1] =F,2 E,2 D,2) :| x2[I:staff -1] A,4- | A,6 | x2 G,4- | G,6 | x2 A4- | A6 | x2 G4- | %85
 G6 | x6 | x6 |[I:staff +1] G,6 | F,6 | E,2 x4 | x6 |[I:staff -1] [EG]6 | F6 | E2 x4 | x6 | x6 | %97
 x6 | x6 | x6 |[K:C][I:staff +1] G,6 | F,6 | x6 | x6 |[I:staff -1] G6 | F6 | E2 x4 | x6 || %108
[K:E] x6 | x6 | x6 | x6 | x6 | x6 | x6 | x6 |] %116
V:5
 (E,3 ^D, E,2) | (E,3 ^D, E,2) | G,6- | (G,2 F,E,^D,F,) | ([G,,E,]2 [F,,^D,]2 [E,,E,]2) | %5
 [^D,,B,,]4 [E,,B,,]2 | (B,,4 ^A,,2 | .B,,2) z2 z2 |[K:treble] (E3 ^D E2) | (E3 ^D E2) | G6- | %11
 (G2 FE^DF) |[K:bass] ([G,E]2 [F,^D]2 [E,E]2) | [^D,B,]4 [E,B,]2 | (B,4 A,2 | G,2) z2 z2 | E,6 | %17
 B,6 | =F,6 | G,6 | E,6 | [G,,D,]6 | [D,,D,]6 | [G,,,G,,]2 z2 z2 |[K:treble] (E3 ^D E2) | [G,G]6 | %26
 (=F3 E F2) | [B,G]6 | (E3 ^D E2) |[K:bass] [C,_B,]6 | [B,,B,]6- | !fermata![B,,B,]4 z2 | %32
[K:treble] (E3 ^D E2) | (E3 ^D E2) | G6- | (G2 FE^DF) |[K:bass] ([G,E]2 [F,^D]2 [E,E]2) | %37
 [^D,B,]4 [E,B,]2 | (B,4 ^A,2 | .B,2) z2 z2 | (E,3 ^D, E,2) | (E,3 ^D, E,2) | C6- | %43
 (C2 B,A,^G,B,) | !wedge!.A,2 B,4 | !wedge!.A,2 B,4 | .[C,E,A,]2 z2 z2 | z2 z2 [A,E]2 | %48
 .[B,E]2 z2 z2 | .[B,,,B,,]2 z2 z2 | z2 z2 B,,2 | C,2 (C,B,,A,,C,) | E,6- | E,6 | B,2 z2 B,2 | %55
 C2 (CB,A,C) | .B,2 (CB,A,C) | .B,2 (CB,A,C) | B,2 z2 z2 | B,2 z2 z2 | [E,,B,,E,]2 z2 z2 | z6 |: %62
[K:C] C,6 | B,,4 D,2 | [C,,C,]2 z2 z2 | z6 | C,6 | B,,4 D,2 | [C,,C,]2 z2 z2 | z6 | (C4 B,2 | %71
 A,4 G,2 | ^F,4 E,2 | ^D,4 E,2) | C,6 | D,6 | G,,2 z2 z2 | z6 :| ^C,6 | (D,2 E,2 F,2) | B,,6 | %81
 (C,2 D,2 E,2) | z2 z2 (^C2 | D2 E2 F2) | z2 z2 (B,2 | =C2 D2 E2 | F2) z2 z2 | z6 | C,6 | %89
 B,,4 D,2 | [C,,C,]2 z2 z2 | z6 | C6 | B,4 D2 | [C,C]2 z2 z2 | z6 | ([C,-E,-G,]6 | [C,E,A,]6) | %98
 [B,,-E,G,B,-]6 | !fermata![B,,^D,^F,B,]6 |[K:C] C,6 | B,,4 D,2 | [C,,C,]2 z2 z2 | z6 | C6 | %105
 B,4 D2 | [C,C]2 z2 z2 | z6 ||[K:E] ([C,-E,-G,]6 | [C,E,A,]6) | [B,,-E,G,B,-]6 | [B,,D,F,B,]6 | %112
 [E,G,B,]2 z2 z2 | [E,,G,,B,,E,G,B,]2 z2 z2 | [E,,G,,B,,E,G,B,]2 z2 z2 | !fermata!z6 |] %116
V:6
 E,3 x3 | C,6 | ^A,,6 | =A,,6 | x6 | x6 | B,,,6- | (2:1:2B,,,2 x2 x4 |[K:treble] E3 x3 | C6 | %10
 ^A,6 | =A,6 |[K:bass] x6 | x6 | B,,6 | E,2 x4 | C,6 | [G,,D,]6 | D,6 | B,,6 | C,6 | x6 | x6 | x6 | %24
[K:treble] C6 | x6 | D6 | x6 | C6 |[K:bass] x6 | x6 | x6 |[K:treble] E3 x3 | C6 | ^A,6 | =A,6 | %36
[K:bass] x6 | x6 | B,,6- | (2:1:2B,,2 x2 x4 | E,3 x3 | C,6 | [D,=F,]6- | [D,F,]6 | %44
 .[C,E,]2 [D,=F,]4 | .[C,E,]2 [D,=F,]4 | x6 | x6 | x6 | x6 | E,,6- | E,,6 | E,,2 z2 B,2 | x6 | %54
 E,6- | E,6 | .E,2 E,4 | .E,2 E,4 | E,2 x4 | E,2 x4 | x6 | x6 |:[K:C] C,,6- | C,,6 | x6 | x6 | %66
 C,,6- | C,,6 | x6 | x6 | x6 | x6 | x6 | x6 | x6 | x6 | x6 | x6 :| G,,6- | G,,6 | G,,6- | G,,6 | %82
 G,6- | G,6 | G,6- | G,6- | G,2 x4 | x6 | C,,6- | C,,6 | x6 | x6 | C,6- | C,6 | x6 | x6 | x6 | x6 | %98
 x6 | x6 |[K:C] C,,6- | C,,6 | x6 | x6 | C,6- | C,6 | x6 | x6 ||[K:E] x6 | x6 | x6 | x6 | x6 | x6 | %114
 x6 | x6 |] %116
V:7
 x6 | x6 | x6 | x6 | x6 | x6 | x6 | x6 |[K:treble] x6 | x6 | x6 | x6 |[K:bass] x6 | x6 | x6 | x6 | %16
 x6 | x6 | x6 | x6 | x6 | x6 | x6 | x6 |[K:treble] x6 | x6 | x6 | x6 | x6 |[K:bass] x6 | x6 | x6 | %32
[K:treble] x6 | x6 | x6 | x6 |[K:bass] x6 | x6 | x6 | x6 | x6 | x6 | x6 | x6 | x6 | x6 | x6 | x6 | %48
 x6 | x6 | x6 | x6 | x6 | C2 (CB,A,C) | x6 | x6 | x6 | x6 | x6 | x6 | x6 | x6 |:[K:C] x6 | x6 | %64
 x6 | x6 | x6 | x6 | x6 | x6 | x6 | x6 | x6 | x6 | x6 | x6 | x6 | x6 :| x6 | x6 | x6 | x6 | x6 | %83
 x6 | x6 | x6 | x6 | x6 | x6 | x6 | x6 | x6 | x6 | x6 | x6 | x6 | x6 | x6 | x6 | x6 |[K:C] x6 | %101
 x6 | x6 | x6 | x6 | x6 | x6 | x6 ||[K:E] x6 | x6 | x6 | x6 | x6 | x6 | x6 | x6 |] %116
V:8
 x6 | x6 | x6 | x6 | x6 | x6 | x6 | x6 |[K:treble] x6 | x6 | x6 | x6 |[K:bass] x6 | x6 | x6 | x6 | %16
 x6 | x6 | x6 | x6 | x6 | x6 | x6 | x6 |[K:treble] x6 | x6 | x6 | x6 | x6 |[K:bass] x6 | x6 | x6 | %32
[K:treble] x6 | x6 | x6 | x6 |[K:bass] x6 | x6 | x6 | x6 | x6 | x6 | x6 | x6 | x6 | x6 | x6 | x6 | %48
 x6 | x6 | x6 | x6 | x6 | x6 | x6 | x6 | x6 | x6 | x6 | x6 | x6 | x6 |:[K:C] x6 | x6 | x6 | x6 | %66
 G,6 | F,6 | x6 | x6 | x6 | x6 | x6 | x6 | x6 | x6 | x6 | x6 :| x6 | x6 | x6 | x6 | x6 | x6 | x6 | %85
 x6 | x6 | x6 | x6 | x6 | x6 | x6 | x6 | x6 | x6 | x6 | x6 | x6 | x6 | x6 |[K:C] x6 | x6 | x6 | %103
 x6 | x6 | x6 | x6 | x6 ||[K:E] x6 | x6 | x6 | x6 | x6 | x6 | x6 | x6 |] %116

